resources/svg/pen-o.svg

<svg width="15" height="15" viewBox="0 0 15 15" fill="none" xmlns="http://www.w3.org/2000/svg">
<path d="M2.5 0.5V0H2V0.5H2.5ZM12.5 0.5H13V0H12.5V0.5ZM4.94712 4.7238C5.07072 4.47686 4.97073 4.17648 4.7238 4.05288C4.47686 3.92928 4.17648 4.02927 4.05288 4.2762L4.94712 4.7238ZM2.50049 8.49475L2.05337 8.27095L1.90688 8.56361L2.11648 8.81497L2.50049 8.49475ZM7.50049 14.4908L7.11648 14.8111C7.21148 14.925 7.35215 14.9908 7.50049 14.9908C7.64882 14.9908 7.7895 14.925 7.8845 14.8111L7.50049 14.4908ZM12.5005 8.49475L12.8845 8.81497L13.0941 8.56356L12.9476 8.27087L12.5005 8.49475ZM10.9471 4.27611C10.8234 4.0292 10.523 3.92928 10.2761 4.05293C10.0292 4.17657 9.92928 4.47697 10.0529 4.72389L10.9471 4.27611ZM8 9.49409L7.99995 8.99409L6.99995 8.99419L7 9.49419L8 9.49409ZM7.5 4.9967C5.01383 4.9967 3 2.98375 3 0.5H2C2 3.53665 4.46217 5.9967 7.5 5.9967V4.9967ZM2.5 1H12.5V0H2.5V1ZM12 0.5C12 2.98375 9.98617 4.9967 7.5 4.9967V5.9967C10.5378 5.9967 13 3.53665 13 0.5H12ZM4.05288 4.2762L2.05337 8.27095L2.94761 8.71855L4.94712 4.7238L4.05288 4.2762ZM2.11648 8.81497L7.11648 14.8111L7.8845 14.1706L2.8845 8.17454L2.11648 8.81497ZM7.8845 14.8111L12.8845 8.81497L12.1165 8.17454L7.11648 14.1706L7.8845 14.8111ZM12.9476 8.27087L10.9471 4.27611L10.0529 4.72389L12.0534 8.71864L12.9476 8.27087ZM8.00049 14.4908L8 9.49409L7 9.49419L7.00049 14.4909L8.00049 14.4908Z" fill="black"/>
</svg>

<svg viewBox="0 0 15 15" fill="none" xmlns="http://www.w3.org/2000/svg" fill="currentColor"><path d="M2.5.5V0H2v.5h.5zm10 0h.5V0h-.5v.5zM4.947 4.724a.5.5 0 00-.894-.448l.894.448zM2.5 8.494l-.447-.223-.146.293.21.251.383-.32zm5 5.997l-.384.32a.5.5 0 00.769 0l-.385-.32zm5-5.996l.384.32.21-.251-.146-.293-.447.224zm-1.553-4.219a.5.5 0 00-.894.448l.894-.448zM8 9.494v-.5H7v.5h1zm-.5-4.497A4.498 4.498 0 013 .5H2a5.498 5.498 0 005.5 5.497v-1zM2.5 1h10V0h-10v1zM12 .5a4.498 4.498 0 01-4.5 4.497v1c3.038 0 5.5-2.46 5.5-5.497h-1zM4.053 4.276l-2 3.995.895.448 2-3.995-.895-.448zM2.116 8.815l5 5.996.769-.64-5-5.996-.769.64zm5.768 5.996l5-5.996-.768-.64-5 5.996.769.64zm5.064-6.54l-2-3.995-.895.448 2 3.995.895-.448zM8 14.49V9.494H7v4.997h1z" fill="currentColor"/></svg>
